X:1
T:Title
%%score { ( 1 4 ) | ( 2 3 ) }
L:1/8
M:3/4
K:Eb
V:1 treble nm="Grand Piano"
V:4 treble 
V:2 bass 
V:3 bass 
V:1
 z2 z2[Q:1/4=116] B,B, | B,2 E2 F2 | G4 Gc | B2 E2 F2 | G4 [FA]G | [DF]2 [DF]2 [EG]2 | %6
 [DA]2 [DB]2 [Dc]2 | B6 | G4 B,B, | B,2 E2 F2 | G4 Gc | B2 E2 F2 | G4 [FA][EG] | F2 F2 G2 | %14
 =A2 d3 c | c6 |[M:2/4] [DB]4 |[M:1/4] [DB][DB] |[M:3/4] [DB]2 F3 G | A4 [DB][Dc] | B2 E3 F | %21
 G4 [FA]G | F2 F2 G2 | =A2 d3 c | c6 | [DB]4 BB | [Ge]2 [EG]2 [Ac]2 | [GB]4 GG | G2 A2 B2 | c4 cc | %30
[M:7/8] B2 e3 z F |[M:3/4] [B,EG]3 [B,EG] [G,B,E]2 | [A,DF]6 |[M:2/4] [G,E]4 |] %34
V:2
 z2 z2 [E,G,][E,G,] | [E,G,]2 [E,G,B,]2 [E,A,B,]2 | [E,B,E]4 [E,B,E][E,A,E] | %3
 [E,G,E]2 [E,G,B,]2 [E,A,B,]2 | [E,B,E]4 B,-[E,B,E] | [B,,B,]2 [B,,B,]2 [B,,B,]2 | %6
 [B,,B,]2 [B,,A,]2 [B,,A,]2 | [E,G,E]6 | [E,B,E]4 [E,G,][E,G,] | [E,G,]2 [E,G,B,]2 [E,A,B,]2 | %10
 [E,B,E]4 [E,B,E][E,A,E] | [E,G,E]2 [E,G,B,]2 [E,A,B,]2 | [E,B,E]4 [D,B,][E,B,] | %13
 [F,B,D]2 [F,B,D]2 [F,B,E]2 | [F,CE]2 [F,B,F]3 [F,=A,E] | [F,=A,E]6 |[M:2/4] [B,,B,]4 | %17
[M:1/4] [B,,F,][B,,F,] |[M:3/4] [B,,B,]2 [A,B,D]3 [G,B,E] | [F,B,D]4 [B,,A,][B,,A,] | %20
 [E,G,E]2 [G,B,]3 [F,B,D] | [E,B,E]4 [D,B,][E,B,E] | [F,B,D]2 [F,B,D]2 [F,B,E]2 | %23
 [F,CE]2 [F,B,F]3 [F,=A,E] | [F,=A,E]6 | [B,,B,]4[K:treble] [B,A][B,A] | [E,B,]2 [E,B,]2 [E,E]2 | %27
 [E,E]4 [E,B,E][E,B,E] | [E,B,E]2 [F,B,D]2[K:treble] [G,B,E]2 | [A,EA]4 [=A,E_G][A,EG] | %30
[M:7/8] [B,EG]2 [B,G]3[K:bass] [C,=A,]2 |[M:3/4] B,,3 B,, B,,2 | B,,6 |[M:2/4] E,4 |] %34
V:3
 x6 | x6 | x6 | x6 | z2 z2 .D,2 | x6 | x6 | x6 | x6 | x6 | x6 | x6 | x6 | x6 | x6 | x6 | %16
[M:2/4] x4 |[M:1/4] x2 |[M:3/4] x6 | x6 | x6 | x6 | x6 | x6 | x6 | x4[K:treble] x2 | x6 | x6 | %28
 x4[K:treble] x2 | x6 |[M:7/8] x5[K:bass] x2 |[M:3/4] x6 | x6 |[M:2/4] x4 |] %34
V:4
 x6 | x6 | x6 | x6 | x6 | x6 | x6 | x6 | x6 | x6 | x6 | x6 | x6 | x6 | x6 | x6 |[M:2/4] x4 | %17
[M:1/4] x2 |[M:3/4] x6 | x6 | x6 | x6 | x6 | x6 | x6 | x6 | x6 | x6 | x6 | x6 | %30
[M:7/8] z z z z2 E2 |[M:3/4] x6 | x6 |[M:2/4] x4 |] %34

